X: 1
T: Donegal Tinker, The
N: (possibly from the Gort Session bootleg recordings)
M: 4/4
L: 1/8
R: reel
K: Gmaj
d|d|dB cAGc|Addc AGEG |Addc AdcA|GEED CDEG |
Ad (3ddd fd (3ddd|Addc AGEG | Addc AdcA |GEED CDEG ||
AD (3DDD A,DDA|AGAB c2 Bc| ADDD A,CEG|AdcA {F}G4|
AD (3DDD A,DDA|AGAB c2 Bc| ADDD A,CEG|AdcA {F}G4||
d|d|d B c|c|c A |dAAA afga|d|d|d B c|c|c A |Bcef g2 fe|
{c}d|d|d B c|c|c A |dAAA afga|d|d|d B c|c|c A |Bcef gg fg ||
aadd adbd | aada dggd |aada-abad |cdef ggfg|
ad (3ddd adbd|adda-adge|abae gage |cdef gefe||
